svg/contact/phone_outgoing_fill.svg

<?xml version="1.0" encoding="UTF-8"?>
<svg width="24px" height="24px" viewBox="0 0 24 24" version="1.1" xmlns="http://www.w3.org/2000/svg" xmlns:xlink="http://www.w3.org/1999/xlink">
    <title>phone_outgoing_fill</title>
    <g id="页面-1" stroke="none" stroke-width="1" fill="none" fill-rule="evenodd">
        <g id="Contact" transform="translate(-672.000000, -48.000000)" fill-rule="nonzero">
            <g id="phone_outgoing_fill" transform="translate(672.000000, 48.000000)">
                 <path d="M24,0 L24,24 L0,24 L0,0 L24,0 Z M12.5934901,23.257841 L12.5819402,23.2595131 L12.5108777,23.2950439 L12.4918791,23.2987469 L12.4918791,23.2987469 L12.4767152,23.2950439 L12.4056548,23.2595131 C12.3958229,23.2563662 12.3870493,23.2590235 12.3821421,23.2649074 L12.3780323,23.275831 L12.360941,23.7031097 L12.3658947,23.7234994 L12.3769048,23.7357139 L12.4804777,23.8096931 L12.4953491,23.8136134 L12.4953491,23.8136134 L12.5071152,23.8096931 L12.6106902,23.7357139 L12.6232938,23.7196733 L12.6232938,23.7196733 L12.6266527,23.7031097 L12.609561,23.275831 C12.6075724,23.2657013 12.6010112,23.2592993 12.5934901,23.257841 L12.5934901,23.257841 Z M12.8583906,23.1452862 L12.8445485,23.1473072 L12.6598443,23.2396597 L12.6498822,23.2499052 L12.6498822,23.2499052 L12.6471943,23.2611114 L12.6650943,23.6906389 L12.6699349,23.7034178 L12.6699349,23.7034178 L12.678386,23.7104931 L12.8793402,23.8032389 C12.8914285,23.8068999 12.9022333,23.8029875 12.9078286,23.7952264 L12.9118235,23.7811639 L12.8776777,23.1665331 C12.8752882,23.1545897 12.8674102,23.1470016 12.8583906,23.1452862 L12.8583906,23.1452862 Z M12.1430473,23.1473072 C12.1332178,23.1423925 12.1221763,23.1452606 12.1156365,23.1525954 L12.1099173,23.1665331 L12.0757714,23.7811639 C12.0751323,23.7926639 12.0828099,23.8018602 12.0926481,23.8045676 L12.108256,23.8032389 L12.3092106,23.7104931 L12.3186497,23.7024347 L12.3186497,23.7024347 L12.3225043,23.6906389 L12.340401,23.2611114 L12.337245,23.2485176 L12.337245,23.2485176 L12.3277531,23.2396597 L12.1430473,23.1473072 Z" id="MingCute" fill-rule="nonzero"></path>
                <path d="M5.41215,2.28593 C5.86822,2.09047 6.4206,2.12624 6.85728,2.44477 C7.99923714,3.27774857 8.88914837,4.41540061 9.65002023,5.50305411 L10.0920427,6.14680901 L10.0920427,6.14680901 L10.509,6.76154 L10.509,6.76154 C10.90884,7.34645067 10.8463813,8.13081093 10.3630889,8.64232759 L10.2531,8.74759 L8.30198,10.1966 C8.10859,10.3402 8.04429,10.6013 8.16027,10.8124 C8.60173,11.616 9.38819,12.8118 10.2882,13.7118 C11.1891,14.6127 12.4414,15.4499 13.3002,15.9411 C13.4950625,16.0524875 13.7338719,16.0099844 13.8848545,15.8539199 L13.9438,15.7802 L15.2131,13.8467 C15.6999,13.199 16.6088,13.0574 17.2695,13.5147 L17.9758122,14.004466 C19.2699314,14.9084071 20.5431,15.8607923 21.521,17.1131 C21.8626,17.5506 21.9133,18.1226 21.7096,18.598 C20.8776,20.5394 18.7439,22.213 16.5524,22.1324 L16.2518759,22.1156825 L16.2518759,22.1156825 L16.0189256,22.0955785 L16.0189256,22.0955785 L15.7611336,22.066687 L15.7611336,22.066687 L15.4795621,22.0276194 L15.4795621,22.0276194 L15.1752731,21.976987 L15.1752731,21.976987 L14.8493287,21.913401 L14.8493287,21.913401 L14.5027909,21.8354728 L14.5027909,21.8354728 L14.136722,21.7418135 L14.136722,21.7418135 L13.7521839,21.6310345 L13.7521839,21.6310345 L13.3502388,21.5017472 C11.5039131,20.876227 9.16110938,19.6463312 6.75735,17.2426 C4.35356813,14.8388125 3.12365344,12.4959965 2.49813876,10.6496743 L2.36885301,10.2477302 L2.36885301,10.2477302 L2.25807648,9.8631937 L2.25807648,9.8631937 L2.16442042,9.49712684 L2.16442042,9.49712684 L2.08649611,9.15059172 L2.08649611,9.15059172 L2.02291481,8.82465043 L2.02291481,8.82465043 L1.97228778,8.52036505 L1.97228778,8.52036505 L1.93322631,8.23879767 L1.93322631,8.23879767 L1.90434165,7.98101038 L1.90434165,7.98101038 L1.88424507,7.74806527 L1.88424507,7.74806527 L1.86754,7.44755 L1.86754,7.44755 C1.78675,5.25209 3.46855,3.1189 5.41215,2.28593 Z M20.0002,3.00006 C20.5524,3.00006 21.0002,3.44778 21.0002,4.00006 L21.0002,8.00006 C21.0002,8.55235 20.5524,9.00006 20.0002,9.00006 C19.4479,9.00006 19.0002,8.55235 19.0002,8.00006 L19.0002,6.41425 L15.7072,9.70722 C15.3167,10.0977 14.6835,10.0977 14.293,9.70722 C13.9025,9.31669 13.9025,8.68353 14.293,8.293 L17.5859,5.00006 L16.0002,5.00006 C15.4479,5.00006 15.0002,4.55235 15.0002,4.00006 C15.0002,3.44778 15.4479,3.00006 16.0002,3.00006 L20.0002,3.00006 Z" id="形状" fill="#09244B"></path>
            </g>
        </g>
    </g>
</svg>

<svg xmlns="http://www.w3.org/2000/svg" width="24" height="24"><g fill="none" fill-rule="nonzero"><path d="M24 0v24H0V0h24ZM12.593 23.258l-.011.002-.071.035-.02.004-.014-.004-.071-.035c-.01-.004-.019-.001-.024.005l-.004.01-.017.428.005.02.01.013.104.074.015.004.012-.004.104-.074.012-.016.004-.017-.017-.427c-.002-.01-.009-.017-.017-.018Zm.265-.113-.013.002-.185.093-.01.01-.003.011.018.43.005.012.008.007.201.093c.012.004.023 0 .029-.008l.004-.014-.034-.614c-.003-.012-.01-.02-.02-.022Zm-.715.002a.023.023 0 0 0-.027.006l-.006.014-.034.614c0 .012.007.02.017.024l.015-.002.201-.093.01-.008.004-.011.017-.43-.003-.012-.01-.01-.184-.092Z"/><path fill="#09244B" d="M5.412 2.286a1.47 1.47 0 0 1 1.445.159C8 3.278 8.89 4.415 9.65 5.503l.442.644.417.615c.4.584.337 1.369-.146 1.88l-.11.106-1.951 1.449a.48.48 0 0 0-.142.615c.442.804 1.228 2 2.128 2.9.901.9 2.153 1.738 3.012 2.23a.48.48 0 0 0 .585-.088l.059-.074 1.27-1.933a1.503 1.503 0 0 1 2.056-.332l.706.49c1.294.903 2.567 1.856 3.545 3.108a1.47 1.47 0 0 1 .189 1.485c-.832 1.941-2.966 3.615-5.158 3.534l-.3-.016-.233-.02-.258-.03-.281-.038-.305-.051-.326-.064-.346-.078-.366-.093-.385-.111-.402-.13c-1.846-.625-4.189-1.855-6.593-4.258-2.403-2.404-3.633-4.747-4.259-6.593l-.13-.402-.11-.385-.094-.366-.078-.346-.063-.326-.05-.305-.04-.281-.029-.258-.02-.233-.016-.3c-.081-2.196 1.6-4.33 3.544-5.162ZM20 3a1 1 0 0 1 1 1v4a1 1 0 0 1-2 0V6.414l-3.293 3.293a1 1 0 0 1-1.414-1.414L17.586 5H16a1 1 0 1 1 0-2h4Z"/></g></svg>
